teeny/outline/deno.svg

<svg width="15" height="15" viewBox="0 0 15 15" fill="none" xmlns="http://www.w3.org/2000/svg">
<path d="M7.5 14.5C3.63401 14.5 0.5 11.366 0.5 7.5C0.5 3.63401 3.63401 0.5 7.5 0.5C11.366 0.5 14.5 3.63401 14.5 7.5C14.5 11.366 11.366 14.5 7.5 14.5ZM7.5 14.5V9.5H6C4.61929 9.5 3.5 8.38071 3.5 7C3.5 5.61929 4.61929 4.5 6 4.5H7.69388C9.54874 4.5 11.0805 5.94903 11.1834 7.80103L11.5 13.5M7 9.5H7.38197C8.06717 9.5 8.69357 9.11287 9 8.5M4 6.5H5M6 6.5H7" stroke="black"/>
</svg>

<svg viewBox="0 0 15 15" xmlns="http://www.w3.org/2000/svg"><path fill="none" stroke="#000" d="M7.5 14.5c-3.87 0-7-3.14-7-7 0-3.87 3.13-7 7-7 3.86 0 7 3.13 7 7 0 3.86-3.14 7-7 7Zm0 0v-5H6C4.61 9.5 3.5 8.38 3.5 7c0-1.39 1.11-2.5 2.5-2.5h1.69c1.85 0 3.38 1.44 3.48 3.3l.31 5.69m-4.5-4h.38c.68 0 1.31-.39 1.61-1m-5-2h1m1 0h1"/></svg>
